X:885
T:Ornithologist, The
C:Freeland Barbour
B:Joe Buchanan's Scottish Tome - Page 442.0
I:442 0
R:Two-step
Z:Carl Allison
L:1/8
M:6/8
K:A
P:Intro
A2 B e2 f | g e e^de | dBG EFG | A3- A2 |
%%vskip 20
S EFG | "A"A E c E | A3 c3 e | f2 e ^d2 e | "E"B3- B2 A |
"E"G2 e e^de | "E7"d2 B EFG | AGA c2 A | "E7"E3 EFG |
"A"A2 E c2 E | A3 c2 e | f2 e d2 e | "E"B3- B2 A |
"E"G2 B e2 f | g2 e e^de | "E7"dBG EFG | A3- A2 !fine!:|
%%vskip 25
CD^D | "A"E2 c c2 B | A2 G A2 E | "Bm"F2 d d2 c | "Bm"B2 ^A "B"B2 F |
"C"G2 e e^de | "E7"d2 B EFG | "A"AGA c2 A | "E7"E3 CD^D |
"A"E2 c c2 B | A2 G A2 E | "Bm"F2 d d2 c | "Bm"B2 ^A "B"B2 F |
"E"G2 e e^de | "E7"d2 B EFG | "A"AGA "E7"c2 B | "A"A3- A2S :|
%%newpage
